X:1
T:Title
%%score { ( 1 3 4 ) | ( 2 5 6 ) }
L:1/8
Q:1/4=100
M:4/4
K:C
V:1 treble nm="Grand Piano"
V:3 treble 
V:4 treble 
V:2 bass 
V:5 bass 
V:6 bass 
V:1
 [Ec]2 [Ec]>[Ec] [_EB]2 [EA]2 | [EA]4 [EG]4 | [DF]2 [DF]>[DF] [B,E]2 [B,D]2 | G6 z2 | %4
w: J.~Lincoln~Hall * * * *||||
 [Ec]2 [Ec]>[Ec] [EB]2 [EA]2 | [Gd]4 [DG]4 | [EA]2 [EB]>[Ec] [DB]2 [CA]2 | [G,B,G]6 z2 | %8
w: ||||
 G2 G>G G2 G2 | d4 G4 | G2 G>G F2 D2 |[M:11/8] [B,G]-[B,G]-[B,G]-[B,G]-[B,G]-[B,G]- [B,G]3 z2 | %12
w: ||||
[M:6/4] C6[K:bass] z2 [B,E]4[K:treble] | C6 G6 | z2[K:bass] F,2 F,2[K:treble] .c4 z c | %15
w: |||
 [CE]12[K:bass] | z2 G,2 G,2[K:treble] [FA]2 [EG]3 F | [CE]6 [Ec]6 | [EB]6 z2 [_E^G]4 | %19
w: ||||
[M:13/8] B-B-B-B-B-B-B-B-B-B- B3- |[M:6/4] B6[K:bass] z4 F,2 | C6[K:treble] G6 | [A,F]6 .c4 z c | %23
w: ||||
 [CE]12 | [^Fd]6 z2 [FB]4 | [EG]6 z6 | [^Ge]6 z2 [Gc]4 | [Ad]6 z6 | [^Fd]6 z2 [FA]4 | [EA]6 z6 | %30
w: |||||||
[M:27/16] [^FA]/-[FA]/-[FA]/-[FA]/-[FA]/-[FA]/-[FA]/-[FA]/-[FA]-<[FA]B-<Be/-e/-e/-e/-e/-e-<ed | %31
w: |
[M:5/4] [Ec]2- [Ec]2- [Ec]6 |] %32
w: |
V:2
 [C,G,]2 [C,G,]>[C,G,] [C,^F,]2 [C,F,]2 | [C,G,]4 [C,G,]4 | %2
 [G,,G,]2 [G,,G,]>[G,,G,] [G,,G,]2 [G,,F,]2 | [C,E,C]2 [G,,F,]2 [C,E,]2 z2 | %4
 [A,,A,]2 [A,,A,]>[A,,A,] [B,,^G,]2 [C,A,]2 | [D,B,]4 [D,B,]4 | %6
 [C,A,]2 [C,^G,]>[A,,A,] [D,=G,]2 [D,^F,]2 | G,,6 z2 | G,2 G,>G, G,2 G,2 | [G,B,F]4 [G,B,F]4 | %10
 G,2 G,>G,[K:bass] F,2 D,2 |[M:11/8] [G,,D,]-[G,,D,]-[G,,D,]-[G,,D,]-[G,,D,]-[G,,D,]- [G,,D,]3 z2 | %12
[M:6/4] z6 z4 F,2 | C,2 E,2 E,2 .[C,E,C]6 | z6 z4 ^G,2 | C,2 E,2 E,2 E,2 E,2 E,2 | z6 z4 F,2 | %17
 C,2 E,2 E,2 A,,2 E,2 E,2 | z2 ^G,2 G,2 z2 .^F,3 _E |[M:13/8] z2 ^G,2 G,2 z2 =G,2 G,3 | %20
[M:6/4] [C,E,]2 C,2 C,2 G,,2 .G,,3 B, | [C,E,]2 D,2 E,2 .[C,E,C]6 | %22
 F,2 F,2 F,2 [F,A,F]2 .[F,A,]3 F | C,2 C,2 C,2 .C,6 | [D,C]2 D,2 D,2 [D,A,]2 .[D,D]3[K:treble] ^F | %25
 G,2[K:bass] G,2 G,2 E,6 | [E,D]2 E,2 E,2 [E,B,]2 .[E,E]3[K:treble] ^G | A,2 A,2 A,2 [A,EA]6 | %28
 [D,C]2 D,2 D,2 [D,A,]2 .[D,D]3 D | G,2 G,2 G,2 [G,CE]6 | %30
[M:27/16] [D,C]/-[D,C]/-[D,C]/-[D,C]/-[D,C]/-[D,C]/-[D,C]/-[D,C]/-[D,C]-<[D,C][K:treble][G,DF]-<[G,DF][G,B,G]/-[G,B,G]/-[G,B,G]/-[G,B,G]/-[G,B,G]/-[G,B,G]-<[G,B,G][G,B,F] | %31
[M:5/4][K:bass] [C,G,C]2- [C,G,C]2- [C,G,C]6 |] %32
V:3
 x8 | x8 | x8 | z2 B,2 C2 z2 | x8 | x8 | x8 | x8 | x8 | x8 | x8 |[M:11/8] x11 | %12
[M:6/4] z2[K:bass] G,2 G,2 [B,D]2 .G,3[K:treble] D | z2 G,2 G,2 z2 B,2 _B,2 | %14
 [A,F]6[K:bass][K:treble] z2 F4 | z2[K:bass] G,2 G,2 G,2 G,2 G,2 | %16
 [B,D]6[K:treble] z2 [G,B,]2 [G,B,]2 | z2 G,2 G,2 z2 [A,C]2 [A,C]2 | z2 B,2 B,2 [_EA]2 .B,3 A | %19
[M:13/8] z z z z z2 F-F-F-F- F2- F/ z/ |[M:6/4] C6[K:bass] z2 [B,E]4 | %21
 z2 F,2 G,2[K:treble] z2 B,2 _B,2 | z6 z2 F4 | G,2 G,2 G,2 .G,6 | z2 C2 C2 .[^Fc]4 z A | %25
 C2 C2 C2 [CGc]6 | z2 D2 D2 .[^Gd]4 z B | E2 E2 E2 c6 | z2 C2 C2 .[^Fc]4 z F | C2 C2 C2 G6 | %30
[M:27/16] x27/2 |[M:5/4] x10 |] %32
V:4
 x8 | x8 | x8 | x8 | x8 | x8 | x8 | x8 | x8 | x8 | x8 |[M:11/8] x11 | %12
[M:6/4] z6[K:bass] z4 G,2[K:treble] | x12 | z6[K:bass][K:treble] z4 C2 | x2[K:bass] x10 | %16
 x6[K:treble] x6 | x12 | z6 z4 B,2 |[M:13/8] z2 B,2 B,2 z2 B,2 B,3 | %20
[M:6/4] z2[K:bass] E,2 E,2 [F,B,D]2 .G,3 D | x6[K:treble] x6 | z6 z4 ^G,2 | x12 | z6 z4 C2 | x12 | %26
 z6 z4 E2 | x12 | z6 z4 C2 | x12 |[M:27/16] x27/2 |[M:5/4] x10 |] %32
V:5
 x8 | x8 | x8 | x8 | x8 | x8 | x8 | x8 | x8 | x8 | x4[K:bass] x4 |[M:11/8] x11 | %12
[M:6/4] C,2 E,2 E,2 G,,2 .F,3 B, | x12 | F,,2 C,2 C,2 [F,F]2 .[A,C]3 F | x12 | %16
 G,,2 F,2 F,2 G,,2 .F,3 D | x12 | z6 z4 ^F,2 |[M:13/8] [E,E]-[E,E]-[E,E]- [E,E]3 D,-D,-D,-D,- D,3 | %20
[M:6/4] z6 z4 G,,2 | x12 | z6 z4 F,2 | x12 | z6 z4 D,2[K:treble] | x2[K:bass] x10 | %26
 z6 z4 E,2[K:treble] | x12 | z6 z4 D,2 | x12 |[M:27/16] x6[K:treble] x15/2 |[M:5/4][K:bass] x10 |] %32
V:6
 x8 | x8 | x8 | x8 | x8 | x8 | x8 | x8 | x8 | x8 | x4[K:bass] x4 |[M:11/8] x11 |[M:6/4] x12 | x12 | %14
 x12 | x12 | x12 | x12 | B,,6 B,,6 |[M:13/8] x13 |[M:6/4] x12 | x12 | x12 | x12 | x11[K:treble] x | %25
 x2[K:bass] x10 | x11[K:treble] x | x12 | x12 | x12 |[M:27/16] x6[K:treble] x15/2 | %31
[M:5/4][K:bass] x10 |] %32

